X: 30355
T: Old Pigeon On The Gate, The
R: reel
M: 4/4
K: Gmajor
G2 BG dGBG|F2 AF dFAF|G2 BG dGBG|cBAG FADF|
G2 BG dGBG|F2 AF dFAF|G2 BG dGBG|cBAG FA D2|
Bdgd BG ~G2|ABcd eged|Bdgd BG ~G2|cBAG FA D2|
Bdgd BG ~G2|ABcd eged|Bdgd BG ~G2|cBAG FADF:|

